X:85
T:Bonny Kate of Aberdeen
M: C|
L:1/8
B:Thompson's Compleat Collection of 200 Favourite Country Dances, vol. 3 (London, 1773)
Z:Transcribed and edited by Flynn Titford-Mock, 2007
Z:abc's:AK/Fiddler's Companion
K:D
A<FE<D A<FE<D | B2 Bc d2 cB | A<FE<D A<FE<D | E>FG>A G2 FE | A<FE<D A<FE<D |
fgaf e2 dc | dfdA BdBG | AFED D4::e<cB<A | d2 cB c2 BA | B2 Bd c2 eg |
fdaf e2 fg | afed ecBA | BcdF E2 DC | DfdA BdBG | AFED D4 :|

